;FLAVOR:RepRap
;TIME:2231
;Generated with Cura_SteamEngine 2.3.1
M104 S220
M109 S220
G28 ;Home
G29
G1 Z15.0 F6000 ;Move the platform down 15mm
G92 E0
G1 F200 E3
G92 E0
;LAYER_COUNT:100
;LAYER:0
M107
G1 F1500 E-6.5
G0 F4500 X70.716 Y50.941 Z.2
;TYPE:SKIRT
G1 F1500 E0
G1 F1800 X71.049 Y50.521 E0.01783
G1 X71.441 Y50.155 E0.03566
G1 X71.883 Y49.851 E0.05351
G1 X72.366 Y49.616 E0.07137
G1 X72.877 Y49.456 E0.08918
G1 X73.407 Y49.374 E0.10702
G1 X73.694 Y49.362 E0.11657
G1 X95.607 Y49.353 E0.8454
G1 X95.648 Y49.353 E0.84677
G1 X101.417 Y49.416 E1.03866
G1 X103.898 Y49.354 E1.1212
G1 X103.99 Y49.353 E1.12426
G1 X126.305 Y49.363 E1.86646
G1 X126.839 Y49.403 E1.88427
G1 X127.362 Y49.522 E1.90211
G1 X127.862 Y49.718 E1.91997
G1 X128.326 Y49.985 E1.93778
G1 X128.746 Y50.319 E1.95563
G1 X129.112 Y50.711 E1.97346
G1 X129.415 Y51.154 E1.99131
G1 X129.65 Y51.636 E2.00915
G1 X129.81 Y52.148 E2.02699
G1 X129.892 Y52.678 E2.04483
G1 X129.873 Y53.43 E2.06985
G1 X129.384 Y57.166 E2.19517
G1 X128.928 Y62.592 E2.37627
G1 X128.778 Y68.067 E2.55844
G1 X128.938 Y73.492 E2.73896
G1 X129.408 Y78.973 E2.92192
G1 X129.858 Y82.56 E3.04216
G1 X129.885 Y83.096 E3.06001
G1 X129.832 Y83.63 E3.07786
G1 X129.669 Y84.24 E3.09886
G1 X124.56 Y98.268 E3.59542
G1 X124.339 Y98.757 E3.61326
G1 X124.048 Y99.207 E3.63109
G1 X123.694 Y99.61 E3.64893
G1 X123.284 Y99.955 E3.66675
G1 X122.827 Y100.236 E3.68459
G1 X122.333 Y100.445 E3.70243
G1 X121.814 Y100.579 E3.72026
G1 X121.28 Y100.635 E3.73812
G1 X120.739 Y100.609 E3.75613
G1 X115.202 Y99.93 E3.94168
G1 X109.771 Y99.575 E4.1227
G1 X104.312 Y99.528 E4.30427
G1 X98.877 Y99.789 E4.48525
G1 X91.588 Y100.613 E4.72923
G1 X91.052 Y100.634 E4.74707
G1 X90.519 Y100.574 E4.76491
G1 X89.952 Y100.419 E4.78446
G1 X84.515 Y98.44 E4.9769
G1 X84.026 Y98.219 E4.99475
G1 X83.635 Y97.973 E5.01011
G1 X77.581 Y93.589 E5.25872
G1 X75.321 Y92.122 E5.34833
G1 X71.839 Y90.026 E5.48351
G1 X71.401 Y89.716 E5.50136
G1 X71.014 Y89.345 E5.51919
G1 X70.687 Y88.92 E5.53702
G1 X70.427 Y88.451 E5.55486
G1 X70.239 Y87.949 E5.57269
G1 X70.127 Y87.424 E5.59054
G1 X70.095 Y86.939 E5.60671
G1 X70.098 Y82.933 E5.73995
G1 X70.122 Y82.525 E5.75354
G1 X70.465 Y79.543 E5.85338
G1 X70.852 Y74.076 E6.03567
G1 X70.93 Y68.615 E6.21732
G1 X70.699 Y63.165 E6.39875
G1 X70.114 Y57.309 E6.59449
G1 X70.096 Y56.952 E6.60638
G1 X70.095 Y52.963 E6.73905
G1 X70.135 Y52.428 E6.7569
G1 X70.254 Y51.905 E6.77474
G1 X70.449 Y51.406 E6.79256
G1 X70.716 Y50.941 E6.81039
G0 F4500 X71.114 Y51.071
G1 F1800 X71.444 Y50.688 E6.8272
G1 X71.83 Y50.362 E6.84401
G1 X72.263 Y50.1 E6.86084
G1 X72.732 Y49.91 E6.87767
G1 X73.224 Y49.797 E6.89446
G1 X73.694 Y49.762 E6.91014
G1 X95.607 Y49.753 E7.63897
G1 X95.643 Y49.753 E7.64017
G1 X101.423 Y49.816 E7.83242
G1 X103.908 Y49.754 E7.9151
G1 X103.989 Y49.753 E7.91779
G1 X126.304 Y49.763 E8.65999
G1 X126.808 Y49.803 E8.67681
G1 X127.3 Y49.922 E8.69364
G1 X127.766 Y50.117 E8.71044
G1 X128.196 Y50.383 E8.72726
G1 X128.579 Y50.713 E8.74408
G1 X128.905 Y51.1 E8.76091
G1 X129.166 Y51.533 E8.77772
G1 X129.355 Y52.002 E8.79454
G1 X129.469 Y52.494 E8.81134
G1 X129.503 Y52.999 E8.82817
G1 X129.476 Y53.378 E8.84081
G1 X128.988 Y57.103 E8.96576
G1 X128.527 Y62.582 E9.14864
G1 X128.379 Y68.05 E9.33057
G1 X128.54 Y73.537 E9.51315
G1 X129.009 Y79.008 E9.69578
G1 X129.461 Y82.61 E9.81652
G1 X129.484 Y83.115 E9.83334
G1 X129.427 Y83.617 E9.85014
G1 X129.293 Y84.103 E9.86691
G1 X124.184 Y98.131 E10.36346
G1 X123.974 Y98.591 E10.38028
G1 X123.694 Y99.012 E10.3971
G1 X123.351 Y99.384 E10.41393
G1 X122.954 Y99.697 E10.43074
G1 X122.513 Y99.944 E10.44755
G1 X122.039 Y100.118 E10.46435
G1 X121.542 Y100.215 E10.48119
G1 X120.788 Y100.212 E10.50627
G1 X115.242 Y99.532 E10.69211
G1 X109.783 Y99.175 E10.87407
G1 X104.297 Y99.128 E11.05654
G1 X98.859 Y99.389 E11.23761
G1 X91.543 Y100.216 E11.4825
G1 X91.037 Y100.233 E11.49933
G1 X90.536 Y100.17 E11.51613
G1 X90.088 Y100.043 E11.53162
G1 X84.651 Y98.064 E11.72406
G1 X84.192 Y97.854 E11.74085
G1 X83.869 Y97.649 E11.75357
G1 X77.807 Y93.259 E12.00251
G1 X75.544 Y91.79 E12.09225
G1 X72.045 Y89.684 E12.22808
G1 X71.634 Y89.39 E12.24489
G1 X71.274 Y89.034 E12.26172
G1 X70.975 Y88.627 E12.27852
G1 X70.743 Y88.177 E12.29536
G1 X70.585 Y87.697 E12.31217
G1 X70.505 Y87.198 E12.32898
G1 X70.495 Y86.94 E12.33756
G1 X70.498 Y82.934 E12.47081
G1 X70.519 Y82.57 E12.48293
G1 X70.864 Y79.57 E12.58337
G1 X71.252 Y74.092 E12.76603
G1 X71.33 Y68.604 E12.94858
G1 X71.099 Y63.143 E13.13037
G1 X70.512 Y57.269 E13.32671
G1 X70.496 Y56.952 E13.33727
G1 X70.495 Y52.963 E13.46995
G1 X70.535 Y52.459 E13.48676
G1 X70.654 Y51.967 E13.5036
G1 X70.848 Y51.501 E13.52039
G1 X71.114 Y51.071 E13.5372
G1 F1500 E7.0372
G0 F4500 X97.24 Y52.306
G0 X103.02 Y53.581
G0 X104.313 Y53.581
G0 X104.355 Y53.623
G0 X104.285 Y53.553
;TYPE:WALL-INNER
G1 F1500 E13.5372
G1 F1800 X125.172 Y53.553 E14.23191
G1 X125.173 Y53.553 E14.23194
G1 X125.457 Y53.553 E14.24139
G1 X125.36 Y53.82 E14.24697
G1 X120.825 Y66.279 E14.68795
G1 X120.261 Y66.074 E14.70791
G1 X120.26 Y66.073 E14.70796
G1 X120.073 Y66.006 E14.71457
G1 X120.141 Y65.819 E14.71884
G1 X121.783 Y61.308 E14.8785
G1 X119.152 Y60.349 E14.97164
G1 X118.965 Y60.281 E14.97826
G1 X118.897 Y60.468 E14.98253
G1 X117.322 Y64.792 E15.13559
G1 X117.254 Y64.979 E15.14221
G1 X117.066 Y64.911 E15.14886
G1 X116.502 Y64.705 E15.16883
G1 X119.445 Y56.62 E15.455
G1 X119.542 Y56.353 E15.46445
G1 X119.258 Y56.353 E15.47003
G1 X119.257 Y56.353 E15.47006
G1 X104.285 Y56.353 E15.96803
G1 X104.285 Y53.553 E16.06116
G0 F4500 X103.885 Y53.153
;TYPE:WALL-OUTER
G1 F1800 X125.743 Y53.153 E16.78816
G1 X125.744 Y53.153 E16.78819
G1 X126.028 Y53.153 E16.79764
G1 X125.931 Y53.42 E16.80322
G1 X121.064 Y66.792 E17.27652
G1 X119.748 Y66.313 E17.3231
G1 X119.747 Y66.312 E17.32314
G1 X119.56 Y66.245 E17.32975
G1 X119.628 Y66.058 E17.33402
G1 X121.27 Y61.547 E17.49369
G1 X119.391 Y60.862 E17.56021
G1 X119.204 Y60.794 E17.56683
G1 X119.136 Y60.981 E17.5711
G1 X117.561 Y65.305 E17.72416
G1 X117.493 Y65.492 E17.73077
G1 X117.305 Y65.424 E17.73742
G1 X115.989 Y64.944 E17.78401
G1 X118.874 Y57.02 E18.06449
G1 X118.971 Y56.753 E18.07394
G1 X118.687 Y56.753 E18.07952
G1 X118.686 Y56.753 E18.07955
G1 X103.885 Y56.753 E18.57184
G1 X103.885 Y53.153 E18.69157
G0 F4500 X104.355 Y53.623
G0 X104.644 Y53.733
;TYPE:SKIN
G1 F1800 X107.084 Y56.172 E18.80632
G0 X107.154 Y56.242
G0 F4500 X107.649 Y56.172
G1 F1800 X105.21 Y53.733 E18.92104
G0 X105.14 Y53.663
G0 F4500 X105.776 Y53.733
G1 F1800 X108.215 Y56.172 E19.03577
G0 X108.285 Y56.242
G0 F4500 X108.781 Y56.172
G1 F1800 X106.341 Y53.733 E19.15051
G0 X106.271 Y53.663
G0 F4500 X106.907 Y53.733
G1 F1800 X109.346 Y56.172 E19.26523
G0 X109.416 Y56.242
G0 F4500 X109.912 Y56.172
G1 F1800 X107.473 Y53.733 E19.37996
G0 X107.403 Y53.663
G0 F4500 X108.038 Y53.733
G1 F1800 X110.478 Y56.172 E19.4947
G0 X110.548 Y56.242
G0 F4500 X111.044 Y56.172
G1 F1800 X108.604 Y53.733 E19.60945
G0 X108.534 Y53.663
G0 F4500 X109.17 Y53.733
G1 F1800 X111.609 Y56.172 E19.72417
G0 X111.679 Y56.242
G0 F4500 X112.175 Y56.172
G1 F1800 X109.735 Y53.733 E19.83892
G0 X109.665 Y53.663
G0 F4500 X110.301 Y53.733
G1 F1800 X112.741 Y56.172 E19.95367
G0 X112.811 Y56.242
G0 F4500 X113.306 Y56.172
G1 F1800 X110.867 Y53.733 E20.06839
G0 X110.797 Y53.663
G0 F4500 X111.432 Y53.733
G1 F1800 X113.872 Y56.172 E20.18314
G0 X113.942 Y56.242
G0 F4500 X114.438 Y56.172
G1 F1800 X111.998 Y53.733 E20.29788
G0 X111.928 Y53.663
G0 F4500 X112.564 Y53.733
G1 F1800 X115.003 Y56.172 E20.41261
G0 X115.073 Y56.242
G0 F4500 X115.569 Y56.172
G1 F1800 X113.13 Y53.733 E20.52733
G0 X113.06 Y53.663
G0 F4500 X113.695 Y53.733
G1 F1800 X116.135 Y56.172 E20.64208
G0 X116.205 Y56.242
G0 F4500 X116.7 Y56.172
G1 F1800 X114.261 Y53.733 E20.7568
G0 X114.191 Y53.663
G0 F4500 X114.827 Y53.733
G1 F1800 X117.266 Y56.172 E20.87152
G0 X117.336 Y56.242
G0 F4500 X117.832 Y56.172
G1 F1800 X115.392 Y53.733 E20.98627
G0 X115.322 Y53.663
G0 F4500 X115.958 Y53.733
G1 F1800 X118.397 Y56.172 E21.10099
G0 X118.467 Y56.242
G0 F4500 X118.963 Y56.172
G1 F1800 X116.524 Y53.733 E21.21572
G0 X116.454 Y53.663
G0 F4500 X117.089 Y53.733
G1 F1800 X119.529 Y56.172 E21.33046
G0 X119.599 Y56.242
G0 F4500 X119.725 Y56.369
G1 F1800 X123.035 Y59.678 E21.48613
G0 X123.105 Y59.748
G0 F4500 X123.186 Y59.264
G1 F1800 X117.655 Y53.733 E21.74629
G0 X117.585 Y53.663
G0 F4500 X118.221 Y53.733
G1 F1800 X123.337 Y58.848 E21.98691
G0 X123.407 Y58.918
G0 F4500 X123.488 Y58.434
G1 F1800 X118.786 Y53.733 E22.20805
G0 X118.716 Y53.663
G0 F4500 X119.352 Y53.733
G1 F1800 X123.639 Y58.019 E22.40968
G0 X123.709 Y58.089
G0 F4500 X123.79 Y57.605
G1 F1800 X119.918 Y53.733 E22.5918
G0 X119.848 Y53.663
G0 F4500 X120.483 Y53.733
G1 F1800 X123.94 Y57.19 E22.75441
G0 X124.01 Y57.26
G0 F4500 X124.092 Y56.775
G1 F1800 X121.049 Y53.733 E22.89752
G0 X120.979 Y53.663
G0 F4500 X121.615 Y53.733
G1 F1800 X124.242 Y56.36 E23.02109
G0 X124.312 Y56.43
G0 F4500 X124.394 Y55.946
G1 F1800 X122.18 Y53.733 E23.1252
G0 X122.11 Y53.663
G0 F4500 X122.746 Y53.733
G1 F1800 X124.544 Y55.531 E23.20978
G0 X124.614 Y55.601
G0 F4500 X124.696 Y55.116
G1 F1800 X123.312 Y53.733 E23.27485
G0 X123.242 Y53.663
G0 F4500 X123.878 Y53.733
G1 F1800 X124.846 Y54.701 E23.32038
G0 X124.916 Y54.771
G0 F4500 X124.72 Y54.01
G1 F1800 X125.078 Y53.802 E23.33667
G0 F4500 X125.148 Y53.872
G0 X119.575 Y56.784
G1 F1800 X122.884 Y60.093 E23.49231
G0 X122.954 Y60.163
G0 F4500 X122.733 Y60.507
G1 F1800 X119.423 Y57.198 E23.64798
G0 X119.353 Y57.128
G0 F4500 X119.273 Y57.613
G1 F1800 X122.582 Y60.922 E23.80363
G0 X122.652 Y60.992
G0 F4500 X122.432 Y61.337
G1 F1800 X119.122 Y58.028 E23.9593
G0 X119.052 Y57.958
G0 F4500 X118.971 Y58.443
G1 F1800 X121.566 Y61.038 E24.08136
G0 X121.636 Y61.108
G0 F4500 X122.108 Y61.579
G1 F1800 X121.957 Y61.994 E24.09755
G1 X121.806 Y62.409 E24.11374
G1 X121.655 Y62.823 E24.1299
G1 X121.504 Y63.238 E24.1461
G1 X121.353 Y63.653 E24.16229
G1 X121.202 Y64.068 E24.17848
G1 X121.051 Y64.482 E24.19464
G1 X120.9 Y64.897 E24.21084
G1 X120.749 Y65.312 E24.22703
G1 X120.598 Y65.727 E24.24326
G0 F4500 X120.771 Y65.899
G0 X121.819 Y61.292
G0 X118.949 Y60.245
G0 X117.202 Y64.594
G0 X117.029 Y64.421
G1 F1800 X117.18 Y64.006 E24.25949
G1 X117.331 Y63.591 E24.27572
G1 X117.482 Y63.176 E24.29195
G1 X117.633 Y62.762 E24.30819
G1 X117.785 Y62.347 E24.32447
G1 X117.935 Y61.932 E24.34068
G1 X118.087 Y61.518 E24.35689
G1 X118.237 Y61.103 E24.37311
G1 X118.389 Y60.689 E24.38932
G1 X118.54 Y60.274 E24.40562
G1 X118.707 Y59.875 E24.42267
G0 F4500 X118.896 Y60.065
G0 X118.669 Y59.272
G1 F1800 X119.786 Y60.389 E24.47521
G0 X119.856 Y60.459
G0 F4500 X120.676 Y60.713
G1 F1800 X118.82 Y58.857 E24.56251
G0 X118.75 Y58.787
G0 F4500 X118.76 Y58.791
G0 X119.574 Y56.331
G0 X106.518 Y56.172
G1 F1800 X104.463 Y54.117 E24.65917
G0 X104.393 Y54.047
G0 F4500 X104.463 Y54.683
G1 F1800 X105.952 Y56.172 E24.72921
G0 X106.022 Y56.242
G0 F4500 X105.387 Y56.172
G1 F1800 X104.463 Y55.249 E24.77265
G0 X104.393 Y55.179
G0 F4500 X104.463 Y55.814
G1 F1800 X104.821 Y56.172 E24.78949
G0 F4500 X104.821 Y55.953
G1 F1500 E18.28949
G0 F4500 X119.574 Y56.331
G0 X116.538 Y64.689
G0 X116.097 Y65.903
G0 X95.426 Y82.287
G0 X95.426 Y83.574
G0 X95.174 Y83.652
G0 X95.174 Y83.552
;TYPE:WALL-INNER
G1 F1500 E24.78949
G1 F1800 X95.458 Y83.552 E24.79893
G1 X95.361 Y83.819 E24.80452
G1 X90.826 Y96.278 E25.2455
G1 X90.262 Y96.073 E25.26546
G1 X90.261 Y96.072 E25.26551
G1 X90.074 Y96.005 E25.27211
G1 X90.142 Y95.818 E25.27638
G1 X91.784 Y91.307 E25.43605
G1 X89.153 Y90.348 E25.52919
G1 X88.966 Y90.28 E25.53581
G1 X88.898 Y90.467 E25.54008
G1 X87.323 Y94.791 E25.69314
G1 X87.255 Y94.978 E25.69976
G1 X87.067 Y94.91 E25.70641
G1 X86.503 Y94.704 E25.72638
G1 X89.446 Y86.619 E26.01255
G1 X89.543 Y86.352 E26.022
G1 X89.259 Y86.352 E26.02757
G1 X89.258 Y86.352 E26.02761
G1 X74.286 Y86.352 E26.52558
G1 X74.286 Y83.552 E26.61871
G1 X95.173 Y83.552 E27.31341
G1 X95.174 Y83.552 E27.31344
G0 F4500 X95.744 Y83.152
;TYPE:WALL-OUTER
G1 F1800 X95.745 Y83.152 E27.31348
G1 X96.029 Y83.152 E27.32292
G1 X95.932 Y83.419 E27.3285
G1 X91.065 Y96.791 E27.8018
G1 X89.749 Y96.312 E27.84838
G1 X89.748 Y96.311 E27.84843
G1 X89.561 Y96.244 E27.85504
G1 X89.629 Y96.057 E27.85931
G1 X91.271 Y91.546 E28.01897
G1 X89.392 Y90.861 E28.08549
G1 X89.205 Y90.793 E28.09211
G1 X89.137 Y90.98 E28.09638
G1 X87.562 Y95.304 E28.24944
G1 X87.494 Y95.491 E28.25606
G1 X87.306 Y95.423 E28.26271
G1 X85.99 Y94.943 E28.3093
G1 X88.875 Y87.019 E28.58978
G1 X88.972 Y86.752 E28.59922
G1 X88.688 Y86.752 E28.6048
G1 X88.687 Y86.752 E28.60484
G1 X73.886 Y86.752 E29.09712
G1 X73.886 Y83.152 E29.21686
G1 X95.744 Y83.152 E29.94386
G0 F4500 X95.377 Y83.609
G0 X95.158 Y83.845
G0 X95.101 Y83.788
G1 F1800 X94.744 Y83.996 E29.95887
G0 F4500 X93.914 Y83.732
;TYPE:SKIN
G1 F1800 X94.856 Y84.674 E30.00318
G0 X94.926 Y84.744
G0 F4500 X94.706 Y85.089
G1 F1800 X93.348 Y83.732 E30.06703
G0 X93.278 Y83.662
G0 F4500 X92.783 Y83.732
G1 F1800 X94.555 Y85.504 E30.15038
G0 X94.625 Y85.574
G0 F4500 X94.404 Y85.919
G1 F1800 X92.217 Y83.732 E30.25325
G0 X92.147 Y83.662
G0 F4500 X91.651 Y83.732
G1 F1800 X94.253 Y86.334 E30.37564
G0 X94.323 Y86.404
G0 F4500 X94.102 Y86.748
G1 F1800 X91.085 Y83.732 E30.51753
G0 X91.015 Y83.662
G0 F4500 X90.52 Y83.732
G1 F1800 X93.951 Y87.163 E30.67891
G0 X94.021 Y87.233
G0 F4500 X93.8 Y87.578
G1 F1800 X89.954 Y83.732 E30.85982
G0 X89.884 Y83.662
G0 F4500 X89.388 Y83.732
G1 F1800 X93.649 Y87.993 E31.06024
G0 X93.719 Y88.063
G0 F4500 X93.498 Y88.407
G1 F1800 X88.823 Y83.732 E31.28014
G0 X88.753 Y83.662
G0 F4500 X88.257 Y83.732
G1 F1800 X93.347 Y88.822 E31.51956
G0 X93.417 Y88.892
G0 F4500 X93.196 Y89.236
G1 F1800 X87.691 Y83.732 E31.77847
G0 X87.621 Y83.662
G0 F4500 X87.126 Y83.732
G1 F1800 X89.565 Y86.171 E31.89319
G0 X89.635 Y86.241
G0 F4500 X89.736 Y86.341
G1 F1800 X93.046 Y89.651 E32.04889
G0 X93.116 Y89.721
G0 F4500 X92.895 Y90.067
G1 F1800 X89.585 Y86.757 E32.20458
G0 X89.515 Y86.687
G0 F4500 X89.434 Y87.172
G1 F1800 X92.744 Y90.481 E32.36025
G0 X92.814 Y90.551
G0 F4500 X92.593 Y90.896
G1 F1800 X89.283 Y87.586 E32.51594
G0 X89.213 Y87.516
G0 F4500 X89.132 Y88.001
G1 F1800 X92.442 Y91.31 E32.67161
G0 X92.512 Y91.38
G0 F4500 X92.118 Y91.552
G1 F1800 X91.967 Y91.967 E32.68784
G1 X91.816 Y92.382 E32.70407
G1 X91.665 Y92.797 E32.7203
G1 X91.514 Y93.211 E32.7365
G1 X91.364 Y93.626 E32.75268
G1 X91.212 Y94.041 E32.76892
G1 X91.062 Y94.456 E32.78514
G1 X90.91 Y94.87 E32.80135
G1 X90.76 Y95.285 E32.81756
G1 X90.608 Y95.7 E32.83384
G0 F4500 X90.436 Y95.528
G0 X91.82 Y91.291
G0 X88.95 Y90.244
G0 X87.213 Y94.567
G0 X87.04 Y94.394
G1 F1800 X87.191 Y93.979 E32.85008
G1 X87.342 Y93.565 E32.86631
G1 X87.493 Y93.15 E32.88254
G1 X87.644 Y92.735 E32.89877
G1 X87.795 Y92.32 E32.915
G1 X87.946 Y91.906 E32.93123
G1 X88.097 Y91.492 E32.94746
G1 X88.248 Y91.077 E32.96373
G1 X88.399 Y90.662 E32.98
G1 X88.55 Y90.247 E32.99627
G1 X88.74 Y89.871 E33.01434
G0 F4500 X88.951 Y90.083
G0 X88.679 Y89.245
G1 F1800 X89.842 Y90.407 E33.06902
G0 X89.912 Y90.477
G0 F4500 X90.732 Y90.732
G1 F1800 X88.83 Y88.83 E33.15849
G0 X88.76 Y88.76
G0 F4500 X88.981 Y88.415
G1 F1800 X91.623 Y91.057 E33.28276
G0 X91.693 Y91.127
G0 F4500 X89.575 Y86.33
G0 X88.999 Y86.171
G1 F1800 X86.56 Y83.732 E33.39748
G0 X86.49 Y83.662
G0 F4500 X85.994 Y83.732
G1 F1800 X88.434 Y86.171 E33.51223
G0 X88.504 Y86.241
G0 F4500 X87.868 Y86.171
G1 F1800 X85.429 Y83.732 E33.62695
G0 X85.359 Y83.662
G0 F4500 X84.863 Y83.732
G1 F1800 X87.302 Y86.171 E33.74167
G0 X87.372 Y86.241
G0 F4500 X86.737 Y86.171
G1 F1800 X84.297 Y83.732 E33.85642
G0 X84.227 Y83.662
G0 F4500 X83.732 Y83.732
G1 F1800 X86.171 Y86.171 E33.97114
G0 X86.241 Y86.241
G0 F4500 X85.605 Y86.171
G1 F1800 X83.166 Y83.732 E34.08587
G0 X83.096 Y83.662
G0 F4500 X82.6 Y83.732
G1 F1800 X85.04 Y86.171 E34.20061
G0 X85.11 Y86.241
G0 F4500 X84.474 Y86.171
G1 F1800 X82.034 Y83.732 E34.31536
G0 X81.964 Y83.662
G0 F4500 X81.469 Y83.732
G1 F1800 X83.908 Y86.171 E34.43008
G0 X83.978 Y86.241
G0 F4500 X83.343 Y86.171
G1 F1800 X80.903 Y83.732 E34.54483
G0 X80.833 Y83.662
G0 F4500 X80.337 Y83.732
