;FLAVOR:RepRap
;TIME:360
;Generated with Cura_SteamEngine 2.3.1
M104 S220
M109 S220
G28 ;Home
G29
G1 Z15.0 F6000 ;Move the platform down 15mm
G92 E0
G1 F200 E3
G92 E0
;LAYER_COUNT:50
;LAYER:0
M107
G1 F1500 E-6.5
G0 F4500 X85.654 Y65.364 Z.2
;TYPE:SKIRT
G1 F1500 E0
G1 F1800 X86.05 Y64.961 E0.01879
G1 X86.5 Y64.618 E0.03761
G1 X86.993 Y64.342 E0.0564
G1 X87.521 Y64.138 E0.07523
G1 X88.071 Y64.011 E0.094
G1 X88.695 Y63.962 E0.11482
G1 X111.301 Y63.963 E0.8667
G1 X111.865 Y64.003 E0.88551
G1 X112.418 Y64.122 E0.90432
G1 X112.948 Y64.318 E0.92312
G1 X113.446 Y64.586 E0.94192
G1 X113.9 Y64.923 E0.96073
G1 X114.303 Y65.319 E0.97952
G1 X114.646 Y65.769 E0.99834
G1 X114.921 Y66.262 E1.01712
G1 X115.125 Y66.79 E1.03594
G1 X115.252 Y67.341 E1.05475
G1 X115.301 Y67.904 E1.07355
G1 X115.269 Y68.468 E1.09234
G1 X115.158 Y69.023 E1.11116
G1 X115.06 Y69.331 E1.12191
G1 X109.937 Y83.402 E1.61997
G1 X109.706 Y83.919 E1.6388
G1 X109.405 Y84.397 E1.65759
G1 X109.04 Y84.829 E1.6764
G1 X108.617 Y85.204 E1.6952
G1 X108.146 Y85.516 E1.71399
G1 X107.635 Y85.759 E1.73281
G1 X107.096 Y85.927 E1.75159
G1 X106.538 Y86.018 E1.77039
G1 X105.972 Y86.029 E1.78922
G1 X105.411 Y85.96 E1.80802
G1 X104.811 Y85.793 E1.82874
G1 X99.38 Y83.818 E2.02095
G1 X98.864 Y83.588 E2.03974
G1 X98.399 Y83.297 E2.05798
G1 X92.445 Y78.98 E2.30259
G1 X90.203 Y77.521 E2.39156
G1 X86.634 Y75.374 E2.53009
G1 X86.171 Y75.049 E2.5489
G1 X85.759 Y74.662 E2.5677
G1 X85.406 Y74.221 E2.58649
G1 X85.118 Y73.734 E2.60531
G1 X84.902 Y73.212 E2.6241
G1 X84.761 Y72.664 E2.64292
G1 X84.696 Y71.947 E2.66686
G1 X84.695 Y67.963 E2.79937
G1 X84.735 Y67.399 E2.81818
G1 X84.854 Y66.846 E2.83699
G1 X85.049 Y66.316 E2.85577
G1 X85.318 Y65.818 E2.8746
G1 X85.654 Y65.364 E2.89338
G0 F4500 X86.049 Y65.521
G1 F1800 X86.441 Y65.155 E2.91122
G1 X86.883 Y64.851 E2.92906
G1 X87.366 Y64.616 E2.94693
G1 X87.877 Y64.456 E2.96474
G1 X88.407 Y64.374 E2.98258
G1 X88.695 Y64.362 E2.99216
G1 X111.301 Y64.363 E3.74404
G1 X111.836 Y64.403 E3.76189
G1 X112.359 Y64.522 E3.77973
G1 X112.858 Y64.717 E3.79754
G1 X113.323 Y64.985 E3.8154
G1 X113.743 Y65.318 E3.83322
G1 X114.109 Y65.71 E3.85106
G1 X114.413 Y66.152 E3.8689
G1 X114.647 Y66.635 E3.88675
G1 X114.807 Y67.146 E3.90456
G1 X114.89 Y67.676 E3.92241
G1 X114.892 Y68.213 E3.94027
G1 X114.815 Y68.743 E3.95808
G1 X114.684 Y69.195 E3.97373
G1 X109.561 Y83.266 E4.47179
G1 X109.34 Y83.754 E4.48961
G1 X109.05 Y84.205 E4.50744
G1 X108.695 Y84.608 E4.5253
G1 X108.285 Y84.953 E4.54312
G1 X107.828 Y85.234 E4.56097
G1 X107.334 Y85.443 E4.57881
G1 X106.815 Y85.577 E4.59664
G1 X106.282 Y85.633 E4.61446
G1 X105.746 Y85.608 E4.63231
G1 X105.22 Y85.504 E4.65014
G1 X104.948 Y85.417 E4.65964
G1 X99.517 Y83.442 E4.85185
G1 X99.028 Y83.222 E4.86968
G1 X98.634 Y82.974 E4.88517
G1 X92.654 Y78.638 E5.13085
G1 X90.426 Y77.188 E5.21926
G1 X86.84 Y75.031 E5.35845
G1 X86.403 Y74.721 E5.37627
G1 X86.016 Y74.349 E5.39412
G1 X85.688 Y73.925 E5.41195
G1 X85.428 Y73.456 E5.42979
G1 X85.24 Y72.954 E5.44761
G1 X85.129 Y72.429 E5.46546
G1 X85.096 Y71.947 E5.48153
G1 X85.095 Y67.963 E5.61404
G1 X85.135 Y67.428 E5.63188
G1 X85.254 Y66.905 E5.64972
G1 X85.449 Y66.406 E5.66754
G1 X85.716 Y65.941 E5.68538
G1 X86.049 Y65.521 E5.7032
G0 F4500 X86.444 Y65.688
G1 F1800 X86.83 Y65.362 E5.72001
G1 X87.263 Y65.1 E5.73684
G1 X87.732 Y64.91 E5.75367
G1 X88.224 Y64.797 E5.77046
G1 X88.695 Y64.762 E5.78617
G1 X111.301 Y64.763 E6.53805
G1 X111.805 Y64.803 E6.55486
G1 X112.297 Y64.922 E6.5717
G1 X112.763 Y65.117 E6.5885
G1 X113.193 Y65.382 E6.6053
G1 X113.576 Y65.713 E6.62214
G1 X113.902 Y66.099 E6.63894
G1 X114.163 Y66.532 E6.65576
G1 X114.353 Y67.001 E6.67259
G1 X114.466 Y67.493 E6.68938
G1 X114.501 Y67.998 E6.70622
G1 X114.455 Y68.501 E6.72302
G1 X114.308 Y69.058 E6.74218
G1 X109.185 Y83.129 E7.24023
G1 X108.975 Y83.589 E7.25705
G1 X108.695 Y84.01 E7.27387
G1 X108.353 Y84.382 E7.29067
G1 X107.956 Y84.695 E7.30749
G1 X107.514 Y84.942 E7.32433
G1 X107.04 Y85.116 E7.34112
G1 X106.544 Y85.213 E7.35793
G1 X106.038 Y85.231 E7.37477
G1 X105.537 Y85.169 E7.39156
G1 X105.084 Y85.041 E7.40722
G1 X99.653 Y83.066 E7.59943
G1 X99.193 Y82.857 E7.61623
G1 X98.869 Y82.65 E7.62902
G1 X92.881 Y78.308 E7.87503
G1 X90.641 Y76.851 E7.96391
G1 X87.046 Y74.688 E8.10345
G1 X86.635 Y74.394 E8.12026
G1 X86.275 Y74.039 E8.13708
G1 X85.976 Y73.632 E8.15387
G1 X85.744 Y73.182 E8.17071
G1 X85.587 Y72.702 E8.18751
G1 X85.506 Y72.203 E8.20432
G1 X85.496 Y71.947 E8.21285
G1 X85.495 Y67.963 E8.34535
G1 X85.535 Y67.459 E8.36217
G1 X85.654 Y66.967 E8.37901
G1 X85.848 Y66.501 E8.39579
G1 X86.114 Y66.071 E8.41261
G1 X86.444 Y65.688 E8.42943
G1 F1500 E1.92943
G0 F4500 X89.314 Y67.288
G0 X89.314 Y68.581
G0 X89.356 Y68.623
G0 X89.286 Y68.553
;TYPE:WALL-INNER
G1 F1500 E8.42943
G1 F1800 X110.172 Y68.553 E9.1241
G1 X110.173 Y68.553 E9.12413
G1 X110.457 Y68.553 E9.13358
G1 X110.36 Y68.82 E9.13916
G1 X105.825 Y81.278 E9.58011
G1 X105.261 Y81.073 E9.60007
G1 X105.26 Y81.072 E9.60012
G1 X105.073 Y81.005 E9.60673
G1 X105.141 Y80.818 E9.611
G1 X106.783 Y76.307 E9.77066
G1 X104.152 Y75.348 E9.8638
G1 X103.965 Y75.28 E9.87042
G1 X103.897 Y75.467 E9.87469
G1 X102.322 Y79.791 E10.02775
G1 X102.254 Y79.978 E10.03437
G1 X102.066 Y79.91 E10.04102
G1 X101.502 Y79.704 E10.06099
G1 X104.445 Y71.62 E10.34713
G1 X104.542 Y71.353 E10.35658
G1 X104.258 Y71.353 E10.36215
G1 X104.257 Y71.353 E10.36219
G1 X89.286 Y71.353 E10.86013
G1 X89.286 Y68.553 E10.95325
G0 F4500 X88.886 Y68.153
;TYPE:WALL-OUTER
G1 F1800 X110.743 Y68.153 E11.68022
G1 X110.744 Y68.153 E11.68025
G1 X111.028 Y68.153 E11.6897
G1 X110.931 Y68.42 E11.69528
G1 X106.064 Y81.791 E12.16855
G1 X104.748 Y81.312 E12.21513
G1 X104.747 Y81.311 E12.21517
G1 X104.56 Y81.244 E12.22178
G1 X104.628 Y81.057 E12.22605
G1 X106.27 Y76.546 E12.38572
G1 X104.391 Y75.861 E12.45224
G1 X104.204 Y75.793 E12.45885
G1 X104.136 Y75.98 E12.46312
G1 X102.561 Y80.304 E12.61618
G1 X102.493 Y80.491 E12.6228
G1 X102.305 Y80.423 E12.62945
G1 X100.989 Y79.943 E12.67604
G1 X103.874 Y72.02 E12.95649
G1 X103.971 Y71.753 E12.96594
G1 X103.687 Y71.753 E12.97152
G1 X103.686 Y71.753 E12.97155
G1 X88.886 Y71.753 E13.4638
G1 X88.886 Y68.153 E13.58354
G0 F4500 X89.356 Y68.623
G0 X89.663 Y68.732
;TYPE:SKIN
G1 F1800 X92.102 Y71.172 E13.69828
G0 X92.172 Y71.242
G0 F4500 X91.537 Y71.172
G1 F1800 X89.465 Y69.1 E13.79574
G0 X89.395 Y69.03
G0 F4500 X89.465 Y69.666
G1 F1800 X90.971 Y71.172 E13.86658
G0 X91.041 Y71.242
G0 F4500 X90.405 Y71.172
G1 F1800 X89.465 Y70.231 E13.91082
G0 X89.395 Y70.161
G0 F4500 X89.465 Y70.797
G1 F1800 X89.84 Y71.172 E13.92846
G0 F4500 X90.228 Y68.732
G1 F1800 X92.668 Y71.172 E14.04323
G0 X92.738 Y71.242
G0 F4500 X93.234 Y71.172
G1 F1800 X90.794 Y68.732 E14.158
G0 X90.724 Y68.662
G0 F4500 X91.36 Y68.732
G1 F1800 X93.799 Y71.172 E14.27275
G0 X93.869 Y71.242
G0 F4500 X94.365 Y71.172
G1 F1800 X91.926 Y68.732 E14.38749
G0 X91.856 Y68.662
G0 F4500 X92.491 Y68.732
G1 F1800 X94.931 Y71.172 E14.50226
G0 X95.001 Y71.242
G0 F4500 X95.496 Y71.172
G1 F1800 X93.057 Y68.732 E14.61701
G0 X92.987 Y68.662
G0 F4500 X93.623 Y68.732
G1 F1800 X96.062 Y71.172 E14.73176
G0 X96.132 Y71.242
G0 F4500 X96.628 Y71.172
G1 F1800 X94.188 Y68.732 E14.84653
G0 X94.118 Y68.662
G0 F4500 X94.754 Y68.732
G1 F1800 X97.193 Y71.172 E14.96127
G0 X97.263 Y71.242
G0 F4500 X97.759 Y71.172
G1 F1800 X95.32 Y68.732 E15.07602
G0 X95.25 Y68.662
G0 F4500 X95.885 Y68.732
G1 F1800 X98.325 Y71.172 E15.19079
G0 X98.395 Y71.242
G0 F4500 X98.891 Y71.172
G1 F1800 X96.451 Y68.732 E15.30556
G0 X96.381 Y68.662
G0 F4500 X97.017 Y68.732
G1 F1800 X99.456 Y71.172 E15.42031
G0 X99.526 Y71.242
G0 F4500 X100.022 Y71.172
G1 F1800 X97.582 Y68.732 E15.53508
G0 X97.512 Y68.662
G0 F4500 X98.148 Y68.732
G1 F1800 X100.588 Y71.172 E15.64985
G0 X100.658 Y71.242
G0 F4500 X101.153 Y71.172
G1 F1800 X98.714 Y68.732 E15.76459
G0 X98.644 Y68.662
G0 F4500 X99.279 Y68.732
G1 F1800 X101.719 Y71.172 E15.87936
G0 X101.789 Y71.242
G0 F4500 X102.285 Y71.172
G1 F1800 X99.845 Y68.732 E15.99413
G0 X99.775 Y68.662
G0 F4500 X100.411 Y68.732
G1 F1800 X102.85 Y71.172 E16.10888
G0 X102.92 Y71.242
G0 F4500 X103.416 Y71.172
G1 F1800 X100.976 Y68.732 E16.22365
G0 X100.906 Y68.662
G0 F4500 X101.542 Y68.732
G1 F1800 X103.982 Y71.172 E16.33842
G0 X104.052 Y71.242
G0 F4500 X104.547 Y71.172
G1 F1800 X102.108 Y68.732 E16.45317
G0 X102.038 Y68.662
G0 F4500 X102.674 Y68.732
G1 F1800 X108.19 Y74.249 E16.71265
G0 X108.26 Y74.319
G0 F4500 X108.342 Y73.835
G1 F1800 X103.239 Y68.732 E16.95268
G0 X103.169 Y68.662
G0 F4500 X103.805 Y68.732
G1 F1800 X108.492 Y73.42 E17.17316
G0 X108.562 Y73.49
G0 F4500 X108.644 Y73.005
G1 F1800 X104.371 Y68.732 E17.37415
G0 X104.301 Y68.662
G0 F4500 X104.936 Y68.732
G1 F1800 X108.794 Y72.59 E17.55562
G0 X108.864 Y72.66
G0 F4500 X108.946 Y72.176
G1 F1800 X105.502 Y68.732 E17.71761
G0 X105.432 Y68.662
G0 F4500 X106.068 Y68.732
G1 F1800 X109.096 Y71.761 E17.86006
G0 X109.166 Y71.831
G0 F4500 X109.247 Y71.347
G1 F1800 X106.633 Y68.732 E17.98304
G0 X106.563 Y68.662
G0 F4500 X107.199 Y68.732
G1 F1800 X109.398 Y70.932 E18.0865
G0 X109.468 Y71.002
G0 F4500 X109.549 Y70.517
G1 F1800 X107.765 Y68.732 E18.17044
G0 X107.695 Y68.662
G0 F4500 X108.33 Y68.732
G1 F1800 X109.7 Y70.102 E18.23488
G0 X109.77 Y70.172
G0 F4500 X109.851 Y69.688
G1 F1800 X108.896 Y68.732 E18.27982
G0 X108.826 Y68.662
G0 F4500 X109.732 Y69.002
G1 F1800 X110.09 Y68.795 E18.29547
G0 F4500 X110.027 Y68.732
G0 X104.73 Y71.355
G1 F1800 X108.04 Y74.664 E18.45114
G0 X108.11 Y74.734
G0 F4500 X107.888 Y75.079
G1 F1800 X104.579 Y71.769 E18.60681
G0 X104.509 Y71.699
G0 F4500 X104.429 Y72.184
G1 F1800 X107.738 Y75.494 E18.76247
G0 X107.808 Y75.564
G0 F4500 X107.587 Y75.908
G1 F1800 X104.277 Y72.599 E18.91814
G0 X104.207 Y72.529
G0 F4500 X104.127 Y73.014
G1 F1800 X107.436 Y76.323 E19.07379
G0 X107.506 Y76.393
G0 F4500 X107.113 Y76.566
G1 F1800 X106.962 Y76.981 E19.08998
G1 X106.811 Y77.395 E19.10614
G1 X106.66 Y77.81 E19.12233
G1 X106.509 Y78.224 E19.13849
G1 X106.358 Y78.639 E19.15469
G1 X106.207 Y79.054 E19.17088
G1 X106.056 Y79.469 E19.18708
G1 X105.905 Y79.883 E19.20324
G1 X105.754 Y80.298 E19.21943
G1 X105.603 Y80.713 E19.23562
G0 F4500 X105.431 Y80.541
G0 X106.819 Y76.291
G0 X103.949 Y75.244
G0 X102.208 Y79.58
G0 X102.035 Y79.407
G1 F1800 X102.185 Y78.992 E19.25188
G1 X102.336 Y78.578 E19.26815
G1 X102.487 Y78.163 E19.28445
G1 X102.638 Y77.748 E19.30075
G1 X102.789 Y77.333 E19.31706
G1 X102.941 Y76.919 E19.33334
G1 X103.092 Y76.504 E19.34964
G1 X103.243 Y76.09 E19.36588
G1 X103.394 Y75.675 E19.38218
G1 X103.544 Y75.26 E19.39844
G1 X103.723 Y74.873 E19.41602
G0 F4500 X103.924 Y75.074
G0 X103.673 Y74.258
G1 F1800 X104.814 Y75.398 E19.46967
G0 X104.884 Y75.468
G0 F4500 X105.703 Y75.722
G1 F1800 X103.825 Y73.843 E19.55803
G0 X103.755 Y73.773
G0 F4500 X103.975 Y73.428
G1 F1800 X106.594 Y76.047 E19.68122
G0 X106.664 Y76.117
G0 F4500 X106.754 Y75.872
;TIME_ELAPSED:30.294814
;LAYER:1
M106 S255
G0 F5250 X106.783 Y76.307 Z.4
;TYPE:WALL-INNER
G1 F2100 X104.152 Y75.348 E19.77435
G1 X103.965 Y75.28 E19.78097
G1 X103.897 Y75.467 E19.78524
G1 X102.322 Y79.791 E19.9383
G1 X102.254 Y79.978 E19.94492
G1 X102.066 Y79.91 E19.95157
G1 X101.502 Y79.704 E19.97154
G1 X104.445 Y71.62 E20.25768
G1 X104.542 Y71.353 E20.26713
G1 X104.258 Y71.353 E20.27271
G1 X104.257 Y71.353 E20.27274
G1 X89.286 Y71.353 E20.77068
G1 X89.286 Y68.553 E20.86381
G1 X110.172 Y68.553 E21.55848
G1 X110.173 Y68.553 E21.55851
G1 X110.457 Y68.553 E21.56796
G1 X110.36 Y68.82 E21.57354
G1 X105.825 Y81.278 E22.01449
G1 X105.261 Y81.073 E22.03445
G1 X105.26 Y81.072 E22.0345
G1 X105.073 Y81.005 E22.04111
G1 X105.141 Y80.818 E22.04538
G1 X106.783 Y76.307 E22.20504
G0 F5250 X106.27 Y76.546
;TYPE:WALL-OUTER
G1 F2100 X104.391 Y75.861 E22.27156
G1 X104.204 Y75.793 E22.27818
G1 X104.136 Y75.98 E22.28245
G1 X102.561 Y80.304 E22.43551
G1 X102.493 Y80.491 E22.44213
G1 X102.305 Y80.423 E22.44878
G1 X100.989 Y79.943 E22.49537
G1 X103.874 Y72.02 E22.77582
G1 X103.971 Y71.753 E22.78526
G1 X103.687 Y71.753 E22.79084
G1 X103.686 Y71.753 E22.79088
G1 X88.886 Y71.753 E23.28313
G1 X88.886 Y68.153 E23.40286
G1 X110.743 Y68.153 E24.12983
G1 X110.744 Y68.153 E24.12986
G1 X111.028 Y68.153 E24.13931
G1 X110.931 Y68.42 E24.14489
G1 X106.064 Y81.791 E24.61816
G1 X104.748 Y81.312 E24.66474
G1 X104.747 Y81.311 E24.66478
G1 X104.56 Y81.244 E24.67139
G1 X104.628 Y81.057 E24.67566
G1 X106.27 Y76.546 E24.83533
G0 F5250 X106.648 Y76.067
;TYPE:SKIN
G1 F2100 X108.032 Y74.683 E24.90043
G0 X108.102 Y74.613
G0 F5250 X108.356 Y73.794
G1 F2100 X106.234 Y75.916 E25.00024
G0 X106.164 Y75.986
G0 F5250 X105.819 Y75.765
G1 F2100 X108.68 Y72.904 E25.13481
G0 X108.75 Y72.834
G0 F5250 X109.004 Y72.015
G1 F2100 X105.404 Y75.614 E25.30412
G0 X105.334 Y75.684
G0 F5250 X104.99 Y75.463
G1 F2100 X109.327 Y71.125 E25.50814
G0 X109.397 Y71.055
G0 F5250 X109.651 Y70.236
G1 F2100 X104.575 Y75.312 E25.7469
G0 X104.505 Y75.382
G0 F5250 X104.161 Y75.161
G1 F2100 X109.975 Y69.346 E26.0204
G0 X110.045 Y69.276
G0 F5250 X110.023 Y68.732
G1 F2100 X103.202 Y75.553 E26.34124
G0 X103.132 Y75.623
G0 F5250 X103.62 Y75.702
G1 F2100 X102.879 Y76.443 E26.37609
G0 X102.809 Y76.513
G0 F5250 X103.295 Y76.592
G1 F2100 X102.555 Y77.332 E26.4109
G0 X102.485 Y77.402
G0 F5250 X102.971 Y77.481
G1 F2100 X102.231 Y78.222 E26.44573
G0 X102.161 Y78.292
G0 F5250 X102.647 Y78.371
G1 F2100 X101.907 Y79.111 E26.48054
G0 X101.837 Y79.181
G0 F5250 X102.323 Y79.261
G1 F2100 X101.918 Y79.666 E26.49959
G0 F5250 X103.949 Y75.244
G0 X106.819 Y76.291
G0 X105.353 Y80.756
G1 F2100 X106.089 Y80.021 E26.53418
G0 X106.159 Y79.951
G0 F5250 X105.677 Y79.867
G1 F2100 X106.413 Y79.131 E26.5688
G0 X106.483 Y79.061
G0 F5250 X106.001 Y78.977
G1 F2100 X106.737 Y78.242 E26.6034
G0 X106.807 Y78.172
G0 F5250 X106.325 Y78.087
G1 F2100 X107.06 Y77.352 E26.63797
G0 X107.13 Y77.282
G0 F5250 X106.649 Y77.198
G1 F2100 X107.384 Y76.462 E26.67257
G0 X107.454 Y76.392
G0 F5250 X106.973 Y76.308
G1 F2100 X107.708 Y75.573 E26.70714
G0 X107.778 Y75.503
G0 F5250 X103.851 Y73.773
G1 F2100 X108.892 Y68.732 E26.94425
G0 X108.962 Y68.662
G0 F5250 X108.326 Y68.732
G1 F2100 X104.175 Y72.884 E27.13952
G0 X104.105 Y72.954
G0 F5250 X104.499 Y71.994
G1 F2100 X107.76 Y68.732 E27.29294
G0 X107.83 Y68.662
G0 F5250 X107.195 Y68.732
G1 F2100 X104.755 Y71.172 E27.40771
G0 X104.685 Y71.242
G0 F5250 X104.19 Y71.172
G1 F2100 X106.629 Y68.732 E27.52245
G0 X106.699 Y68.662
G0 F5250 X106.063 Y68.732
G1 F2100 X103.624 Y71.172 E27.6372
G0 X103.554 Y71.242
G0 F5250 X103.058 Y71.172
G1 F2100 X105.498 Y68.732 E27.75197
G0 X105.568 Y68.662
G0 F5250 X104.932 Y68.732
G1 F2100 X102.493 Y71.172 E27.86672
G0 X102.423 Y71.242
G0 F5250 X101.927 Y71.172
G1 F2100 X104.366 Y68.732 E27.98146
G0 X104.436 Y68.662
G0 F5250 X103.801 Y68.732
G1 F2100 X101.361 Y71.172 E28.09623
G0 X101.291 Y71.242
G0 F5250 X100.795 Y71.172
G1 F2100 X103.235 Y68.732 E28.211
G0 X103.305 Y68.662
G0 F5250 X102.669 Y68.732
G1 F2100 X100.23 Y71.172 E28.32575
G0 X100.16 Y71.242
G0 F5250 X99.664 Y71.172
G1 F2100 X102.104 Y68.732 E28.44052
G0 X102.174 Y68.662
G0 F5250 X101.538 Y68.732
G1 F2100 X99.098 Y71.172 E28.55529
G0 X99.028 Y71.242
G0 F5250 X98.533 Y71.172
G1 F2100 X100.972 Y68.732 E28.67004
G0 X101.042 Y68.662
G0 F5250 X100.407 Y68.732
G1 F2100 X97.967 Y71.172 E28.78481
G0 X97.897 Y71.242
G0 F5250 X97.401 Y71.172
G1 F2100 X99.841 Y68.732 E28.89958
G0 X99.911 Y68.662
G0 F5250 X99.275 Y68.732
G1 F2100 X96.836 Y71.172 E29.01432
G0 X96.766 Y71.242
G0 F5250 X96.27 Y71.172
G1 F2100 X98.709 Y68.732 E29.12907
G0 X98.779 Y68.662
G0 F5250 X98.144 Y68.732
G1 F2100 X95.704 Y71.172 E29.24384
G0 X95.634 Y71.242
G0 F5250 X95.139 Y71.172
G1 F2100 X97.578 Y68.732 E29.35859
G0 X97.648 Y68.662
G0 F5250 X97.012 Y68.732
G1 F2100 X94.573 Y71.172 E29.47333
G0 X94.503 Y71.242
G0 F5250 X94.007 Y71.172
G1 F2100 X96.447 Y68.732 E29.5881
G0 X96.517 Y68.662
G0 F5250 X95.881 Y68.732
G1 F2100 X93.442 Y71.172 E29.70285
G0 X93.372 Y71.242
G0 F5250 X92.876 Y71.172
G1 F2100 X95.315 Y68.732 E29.8176
G0 X95.385 Y68.662
G0 F5250 X94.75 Y68.732
G1 F2100 X92.31 Y71.172 E29.93237
G0 X92.24 Y71.242
G0 F5250 X91.744 Y71.172
